app/static/img/bitcoin-cash-logo-horizontal-wt.svg

<svg xmlns="http://www.w3.org/2000/svg" width="3714" height="505"><g fill-rule="nonzero" fill="none"><path fill="#FFF" d="M725.4 498.7c-24.1 0-48.3-.7-72.1-2.3-25.1-1.7-50.1-5.2-74.7-10.4V59c20.2-3.9 42.7-6.5 66.9-8.5 24.1-2 46.6-2.9 67.5-2.9 28.1 0 53.8 2 77.3 6.2 23.5 3.9 43.7 10.8 60.7 20.5 17 9.8 30.3 22.5 39.8 38.5 9.5 16 14.4 35.6 14.4 58.7 0 35.2-17 62.9-50.9 83.2 28.1 10.4 47 25.1 57.1 43.1 10.1 18.3 15.3 38.8 15.3 61.6 0 46.3-17 80.9-50.6 104.1-34.2 23.8-84.1 35.2-150.7 35.2zm-50.2-273h48.3c30.7 0 52.2-3.9 65.6-11.7 13-7.8 19.6-20.5 19.6-37.8 0-17.9-6.8-30.3-20.2-37.5-13.7-7.2-33.6-10.8-59.7-10.8-8.5 0-17.6 0-27.4.3-9.8.3-18.3.7-26.1 1.6-.1 0-.1 95.9-.1 95.9zm0 75.7v113.8c7.2 1 15 1.6 23.5 2 8.5.4 17.9.7 28.1.7 29.7 0 53.5-4.2 71.8-12.7 18.3-8.5 27.4-24.1 27.4-47 0-20.2-7.5-34.9-22.8-43.4-15.3-8.8-37.2-13-65.6-13h-62.3v-.4h-.1zM1067.9 62.3c0 17.3-5.5 31-17 41.1-11.1 10.1-24.5 15-39.8 15-14.7.2-28.9-5.1-39.8-15-11.1-10.1-17-23.5-17-41.1 0-17.3 5.5-31 17-41.1 10.9-9.8 25.1-15.2 39.8-15 14.7-.2 28.9 5.1 39.8 15 11.4 10.1 17 23.8 17 41.1zm-9.1 430.9h-94.6V158.8h94.6v334.4zM1109.7 75.6l94.6-15.3v98.5h113.8v78.9h-113.8v117.4c0 19.9 3.6 35.9 10.4 47.6 6.8 11.7 21.2 17.9 42.4 17.9 10.5-.1 21-1 31.3-2.9 10.1-1.8 20-4.4 29.7-7.8l13.4 73.7c-12.4 5-25.2 9.1-38.2 12.1-14 3.3-31 5.2-51.5 5.2-25.8 0-47.3-3.6-64.3-10.4-17-6.8-30.7-16.6-40.8-29.4-10.1-12.4-17.3-27.7-21.2-45.3-4.2-19.4-6.3-39.2-6.2-59V75.6h.4zM1331.5 326.1c-.2-23.2 3.8-46.3 11.7-68.2 7.4-20.7 18.9-39.7 33.9-55.8 14.7-16 32.9-28.4 54.1-37.8 21.2-9.5 45.3-14 72.4-14 17.9 0 34.2 1.6 48.9 4.9 14.8 3.2 29.2 7.8 43.1 13.7l-19.6 75.7c-9.6-3.5-19.4-6.5-29.4-8.8-11.7-2.7-23.6-4-35.6-3.9-28.1 0-48.9 8.8-62.6 26.1-13.7 17.3-20.5 40.1-20.5 68.5 0 30 6.5 53.5 19.2 69.8 13 16.6 35.6 24.8 67.5 24.8 12.4 0 24.7-1.1 36.9-3.3 12.4-1.9 24.6-5.3 36.2-10.1l13.4 77.6c-13.4 5.4-27.2 9.4-41.4 12.1-18.1 3.5-36.4 5.3-54.8 5.2-30.7 0-56.8-4.6-78.9-13.7-22.2-9.1-40.1-21.5-54.5-37.2-14.4-15.7-24.5-34.2-31-55.5-5.9-22.9-8.9-46.4-9-70.1zM1927.1 325.5c0 26.4-3.9 50.2-11.4 72.1-7.5 21.9-18.6 40.4-32.9 55.8-14.6 15.5-32.3 27.7-51.9 35.9-20.3 8.5-42.7 12.7-67.5 12.7-24.5 0-47-4.2-67.2-12.7-19.7-8.1-37.3-20.4-51.9-35.9-14.4-15.3-25.8-34.2-33.6-55.8-8.2-21.9-12.1-46-12.1-72.1 0-26.4 4.2-50.2 12.4-71.8 8.2-21.5 19.6-40.1 34.2-55.1 14.8-15.3 32.5-27.5 52.2-35.6 20.2-8.5 42.1-12.7 65.9-12.7 24.1 0 46.3 4.2 66.5 12.7 20.2 8.5 37.5 20.2 51.9 35.6 14.8 15.9 26.3 34.6 33.6 55.1 7.6 21.6 11.8 45.4 11.8 71.8zm-96.5 0c0-29.4-5.9-52.2-17.6-68.8-11.7-16.6-28.4-25.1-49.9-25.1s-38.5 8.5-50.2 25.1c-11.7 16.6-17.9 39.8-17.9 68.8 0 29.4 5.9 52.5 17.9 69.5 11.7 17.3 28.7 25.8 50.2 25.8 21.5 0 38.2-8.5 49.9-25.8 11.7-17.3 17.6-40.5 17.6-69.5zM2068.7 62.3c0 17.3-5.5 31-17 41.1-11.1 10.1-24.5 15-39.8 15-14.7.2-28.9-5.1-39.8-15-11.1-10.1-17-23.5-17-41.1 0-17.3 5.5-31 17-41.1 10.9-9.8 25.1-15.2 39.8-15 14.7-.2 28.9 5.1 39.8 15 11.4 10.1 17 23.8 17 41.1zm-8.8 430.9h-94.6V158.8h94.6v334.4zM2113.7 170.2c16-4.6 36.9-9.1 62.3-13 26.4-4.1 53.1-6.2 79.9-6.2 28.4 0 51.9 3.6 70.8 11.1s33.9 17.9 44.7 31.3c11.1 13.7 18.9 29.7 23.5 48.3 4.6 18.6 6.8 39.5 6.8 62.3v188.9h-94.6V315.4c0-30.7-3.9-52.2-12.1-64.9-8.2-12.7-23.2-18.9-45-18.9-6.8 0-14 .3-21.5 1s-14.4 1.3-20.2 2.3v258h-94.6V170.2zM2660.4 502c-71.8 0-126.2-19.9-163.7-59.7-37.5-39.8-56.1-96.2-56.1-169.6 0-36.5 5.9-68.8 17.3-97.5 11.4-28.7 27.1-52.8 47-72.4 20.2-19.8 44.5-35.1 71.1-44.7 27.4-10.1 57.4-15.3 89.7-15.3 18.6 0 35.6 1.3 50.9 4.2 13.6 2.2 27 5.4 40.1 9.5 9.8 3 19.4 6.7 28.7 11.1 7.5 3.9 13 6.8 16.6 8.8l-28.7 79.9c-15.1-7.8-30.9-13.9-47.3-18.3-17.9-5.2-38.5-7.5-61.3-7.5-15.2 0-30.3 2.6-44.7 7.5-14.6 5.2-27.8 13.6-38.8 24.5-11.1 11.1-20.2 25.8-27.1 43.4-6.8 17.9-10.1 39.5-10.1 64.9-.1 19.1 2.1 38.2 6.5 56.8 4.6 17.6 11.7 32.6 21.5 45.3 10.4 13.1 23.8 23.5 39.1 30.3 16 7.5 35.6 11.1 58.4 11.1 13 0 25.9-.8 38.8-2.6 10.4-1.4 20.6-3.4 30.7-6.2 8-2 15.9-4.6 23.5-7.8 6.8-2.9 13-5.9 18.3-8.2l27.4 79.6c-14 8.5-33.6 16-59 22.8-25.9 6.8-55.5 10.1-88.8 10.1zM2956.6 150c28.1 0 51.2 3.3 69.8 9.5 18.6 6.2 33.6 15.3 44.7 27.4 11.4 12.2 19.5 27 23.8 43.1 4.6 17 6.8 35.9 6.8 56.4v197c-13.7 2.9-32.3 6.5-56.4 10.4-24.1 3.9-53.5 6.2-87.7 6.2-21.5 0-41.1-2-58.7-5.9-17.6-3.9-32.6-10.1-45.3-18.6-12.6-8.6-22.7-20.2-29.4-33.9-6.8-14-10.1-31-10.1-51.5 0-19.6 3.9-35.9 11.7-49.6 7.4-13.3 18.2-24.4 31.3-32.3 13-8.2 28.1-14 45-17.6 17.4-3.7 35.1-5.5 52.8-5.5 12.4 0 23.2.7 32.6 1.6 9.5 1 17.3 2.3 23.2 4.2v-8.8c0-16-4.9-29-14.7-38.8-9.8-9.8-26.7-14.7-50.9-14.7-15.9 0-31.8 1.2-47.6 3.6-15.7 2.3-29.4 5.5-40.8 9.8l-12.1-76.3c5.5-1.6 12.4-3.6 20.5-5.5 8.2-2 17.3-3.6 27.1-5.2s19.9-2.6 30.7-3.9c11.5-.4 22.6-1.1 33.7-1.1zm7.5 276.9c9.5 0 18.3-.3 26.7-.7 6.8-.1 13.5-.8 20.2-2v-71.8c-3.9-1-9.5-1.6-17.3-2.6-6.9-.9-13.9-1.3-20.9-1.3-8.4.1-16.8.6-25.1 1.6-7.8 1-14.7 2.9-20.5 6.2-5.7 2.7-10.5 6.9-14 12.1-3.5 5.7-5.3 12.2-5.2 18.9 0 14.7 4.9 25.1 15 30.7 10.1 6.3 23.8 8.9 41.1 8.9zM3248.8 425.3c17.3 0 29.7-1.6 36.9-5.2 7.2-3.3 10.8-10.1 10.8-19.6 0-7.5-4.6-14.4-14-19.9-9.5-5.9-23.5-12.1-42.7-19.2-14.7-5.5-28.4-11.1-40.4-17.3-12.1-5.9-22.5-13-30.7-21.2-8.6-8.4-15.2-18.5-19.6-29.7-4.6-11.4-6.8-25.1-6.8-41.4 0-31.3 11.7-56.1 34.9-74.4 23.2-18.3 55.1-27.4 95.9-27.4 19.6 0 39.1 1.9 58.4 5.5 18.6 3.6 33.6 7.5 44.4 11.7l-16.6 73.7c-11.8-4.1-23.7-7.5-35.9-10.1-14.3-3.1-28.8-4.7-43.4-4.6-29.7 0-44.4 8.2-44.4 24.8-.1 3.5.6 6.9 2 10.1 1.7 3.4 4.3 6.4 7.5 8.5 5 3.4 10.2 6.3 15.7 8.8 8.1 4 16.5 7.4 25.1 10.4 20.9 7.8 37.8 15.3 51.5 22.8 13.7 7.5 24.1 15.7 32 24.1 7.5 8.3 13.2 18 16.6 28.7 3.3 10.4 4.9 22.8 4.9 36.9 0 32.9-12.4 58.1-37.2 74.7-24.8 17-59.7 25.4-105 25.4-29.7 0-54.5-2.6-74-7.5-19.6-5.2-33.3-9.5-41.1-12.7l16-77c16.1 6.3 32.7 11.3 49.6 15 16.3 4.1 32.9 6.1 49.6 6.1zM3426 493.2V15.3L3520.6 0v160.2c8-2.5 16.2-4.6 24.5-6.2 9.5-1.9 19.3-2.9 29-2.9 27.1 0 49.6 3.6 67.5 11.1s32.3 17.9 43.1 31.3c10.8 13.7 18.3 29.7 22.8 48.3 4.6 18.6 6.5 39.5 6.5 62.3V493h-94.6V315.4c0-30.7-3.9-52.2-11.7-64.9-7.8-12.7-22.5-18.9-43.4-18.9-8-.1-16 .7-23.8 2.3-7.5 1.6-14 2.9-19.9 4.9v254.1H3426v.3z"/><circle cx="249.6" cy="255.2" r="249.2" fill="#FFF"/><path fill="#000" d="M327.4 171.8c-12.5-28.4-41.2-34.3-76.4-28.5l-11.3-43.8-26.7 6.9 11.1 43.7c-7 1.8-14.2 3.3-21.3 5.3L191.6 112l-26.7 6.9 11.3 43.8c-5.7 1.6-53.7 14-53.7 14l7.4 28.5s19.6-5.5 19.4-5c10.8-2.8 15.9 2.6 18.4 7.7l31 120c.4 3.5-.2 9.5-7.7 11.4.4.2-19.4 5-19.4 5l2.9 33.2s47.5-12.2 53.8-13.7l11.5 44.3 26.6-6.9-11.4-44.6c7.4-1.7 14.4-3.5 21.4-5.3l11.4 44.4 26.7-6.9-11.4-44.2c41-10 70-35.8 64-75.4-3.8-23.8-29.8-43.4-51.5-45.6 13.2-12 20-29.3 11.8-51.8zm-12.9 104.4c5.3 39.2-49.1 44-67.2 48.7l-15.7-58.6c18.2-4.8 74-24.7 82.9 9.9zm-32.8-79.8c5.6 34.8-40.9 38.9-56 42.8L211.5 186c15.1-3.9 58.8-21.8 70.2 10.4z"/></g></svg>

<svg xmlns="http://www.w3.org/2000/svg" xmlns:xlink="http://www.w3.org/1999/xlink" width="3714" height="505" version="1.1" viewBox="0 0 3714 505"><title>bitcoin-cash-logo-horizontal-wt</title><g id="Page-1" fill="none" fill-rule="evenodd" stroke="none" stroke-width="1"><g id="bitcoin-cash-logo-horizontal-wt" fill-rule="nonzero"><path id="Shape" fill="#FFF" d="M725.4,498.7 C701.3,498.7 677.1,498 653.3,496.4 C628.2,494.7 603.2,491.2 578.6,486 L578.6,59 C598.8,55.1 621.3,52.5 645.5,50.5 C669.6,48.5 692.1,47.6 713,47.6 C741.1,47.6 766.8,49.6 790.3,53.8 C813.8,57.7 834,64.6 851,74.3 C868,84.1 881.3,96.8 890.8,112.8 C900.3,128.8 905.2,148.4 905.2,171.5 C905.2,206.7 888.2,234.4 854.3,254.7 C882.4,265.1 901.3,279.8 911.4,297.8 C921.5,316.1 926.7,336.6 926.7,359.4 C926.7,405.7 909.7,440.3 876.1,463.5 C841.9,487.3 792,498.7 725.4,498.7 Z M675.2,225.7 L723.5,225.7 C754.2,225.7 775.7,221.8 789.1,214 C802.1,206.2 808.7,193.5 808.7,176.2 C808.7,158.3 801.9,145.9 788.5,138.7 C774.8,131.5 754.9,127.9 728.8,127.9 C720.3,127.9 711.2,127.9 701.4,128.2 C691.6,128.5 683.1,128.9 675.3,129.8 C675.2,129.8 675.2,225.7 675.2,225.7 L675.2,225.7 Z M675.2,301.4 L675.2,415.2 C682.4,416.2 690.2,416.8 698.7,417.2 C707.2,417.6 716.6,417.9 726.8,417.9 C756.5,417.9 780.3,413.7 798.6,405.2 C816.9,396.7 826,381.1 826,358.2 C826,338 818.5,323.3 803.2,314.8 C787.9,306 766,301.8 737.6,301.8 L675.3,301.8 L675.3,301.4 L675.2,301.4 L675.2,301.4 Z"/><path id="Shape" fill="#FFF" d="M1067.9,62.3 C1067.9,79.6 1062.4,93.3 1050.9,103.4 C1039.8,113.5 1026.4,118.4 1011.1,118.4 C996.4,118.6 982.2,113.3 971.3,103.4 C960.2,93.3 954.3,79.9 954.3,62.3 C954.3,45 959.8,31.3 971.3,21.2 C982.2,11.4 996.4,6 1011.1,6.2 C1025.8,6 1040,11.3 1050.9,21.2 C1062.3,31.3 1067.9,45 1067.9,62.3 Z M1058.8,493.2 L964.2,493.2 L964.2,158.8 L1058.8,158.8 L1058.8,493.2 Z"/><path id="Path" fill="#FFF" d="M1109.7,75.6 L1204.3,60.3 L1204.3,158.8 L1318.1,158.8 L1318.1,237.7 L1204.3,237.7 L1204.3,355.1 C1204.3,375 1207.9,391 1214.7,402.7 C1221.5,414.4 1235.9,420.6 1257.1,420.6 C1267.6,420.5 1278.1,419.6 1288.4,417.7 C1298.5,415.9 1308.4,413.3 1318.1,409.9 L1331.5,483.6 C1319.1,488.6 1306.3,492.7 1293.3,495.7 C1279.3,499 1262.3,500.9 1241.8,500.9 C1216,500.9 1194.5,497.3 1177.5,490.5 C1160.5,483.7 1146.8,473.9 1136.7,461.1 C1126.6,448.7 1119.4,433.4 1115.5,415.8 C1111.3,396.4 1109.2,376.6 1109.3,356.8 L1109.3,75.6 L1109.7,75.6 Z"/><path id="Path" fill="#FFF" d="M1331.5,326.1 C1331.3,302.9 1335.3,279.8 1343.2,257.9 C1350.6,237.2 1362.1,218.2 1377.1,202.1 C1391.8,186.1 1410,173.7 1431.2,164.3 C1452.4,154.8 1476.5,150.3 1503.6,150.3 C1521.5,150.3 1537.8,151.9 1552.5,155.2 C1567.3,158.4 1581.7,163 1595.6,168.9 L1576,244.6 C1566.4,241.1 1556.6,238.1 1546.6,235.8 C1534.9,233.1 1523,231.8 1511,231.9 C1482.9,231.9 1462.1,240.7 1448.4,258 C1434.7,275.3 1427.9,298.1 1427.9,326.5 C1427.9,356.5 1434.4,380 1447.1,396.3 C1460.1,412.9 1482.7,421.1 1514.6,421.1 C1527,421.1 1539.3,420 1551.5,417.8 C1563.9,415.9 1576.1,412.5 1587.7,407.7 L1601.1,485.3 C1587.7,490.7 1573.9,494.7 1559.7,497.4 C1541.6,500.9 1523.3,502.7 1504.9,502.6 C1474.2,502.6 1448.1,498 1426,488.9 C1403.8,479.8 1385.9,467.4 1371.5,451.7 C1357.1,436 1347,417.5 1340.5,396.2 C1334.6,373.3 1331.6,349.8 1331.5,326.1 Z"/><path id="Shape" fill="#FFF" d="M1927.1,325.5 C1927.1,351.9 1923.2,375.7 1915.7,397.6 C1908.2,419.5 1897.1,438 1882.8,453.4 C1868.2,468.9 1850.5,481.1 1830.9,489.3 C1810.6,497.8 1788.2,502 1763.4,502 C1738.9,502 1716.4,497.8 1696.2,489.3 C1676.5,481.2 1658.9,468.9 1644.3,453.4 C1629.9,438.1 1618.5,419.2 1610.7,397.6 C1602.5,375.7 1598.6,351.6 1598.6,325.5 C1598.6,299.1 1602.8,275.3 1611,253.7 C1619.2,232.2 1630.6,213.6 1645.2,198.6 C1660,183.3 1677.7,171.1 1697.4,163 C1717.6,154.5 1739.5,150.3 1763.3,150.3 C1787.4,150.3 1809.6,154.5 1829.8,163 C1850,171.5 1867.3,183.2 1881.7,198.6 C1896.5,214.5 1908,233.2 1915.3,253.7 C1922.9,275.3 1927.1,299.1 1927.1,325.5 Z M1830.6,325.5 C1830.6,296.1 1824.7,273.3 1813,256.7 C1801.3,240.1 1784.6,231.6 1763.1,231.6 C1741.6,231.6 1724.6,240.1 1712.9,256.7 C1701.2,273.3 1695,296.5 1695,325.5 C1695,354.9 1700.9,378 1712.9,395 C1724.6,412.3 1741.6,420.8 1763.1,420.8 C1784.6,420.8 1801.3,412.3 1813,395 C1824.7,377.7 1830.6,354.5 1830.6,325.5 Z"/><path id="Shape" fill="#FFF" d="M2068.7,62.3 C2068.7,79.6 2063.2,93.3 2051.7,103.4 C2040.6,113.5 2027.2,118.4 2011.9,118.4 C1997.2,118.6 1983,113.3 1972.1,103.4 C1961,93.3 1955.1,79.9 1955.1,62.3 C1955.1,45 1960.6,31.3 1972.1,21.2 C1983,11.4 1997.2,6 2011.9,6.2 C2026.6,6 2040.8,11.3 2051.7,21.2 C2063.1,31.3 2068.7,45 2068.7,62.3 Z M2059.9,493.2 L1965.3,493.2 L1965.3,158.8 L2059.9,158.8 L2059.9,493.2 Z"/><path id="Path" fill="#FFF" d="M2113.7,170.2 C2129.7,165.6 2150.6,161.1 2176,157.2 C2202.4,153.1 2229.1,151 2255.9,151 C2284.3,151 2307.8,154.6 2326.7,162.1 C2345.6,169.6 2360.6,180 2371.4,193.4 C2382.5,207.1 2390.3,223.1 2394.9,241.7 C2399.5,260.3 2401.7,281.2 2401.7,304 L2401.7,492.9 L2307.1,492.9 L2307.1,315.4 C2307.1,284.7 2303.2,263.2 2295,250.5 C2286.8,237.8 2271.8,231.6 2250,231.6 C2243.2,231.6 2236,231.9 2228.5,232.6 C2221,233.3 2214.1,233.9 2208.3,234.9 L2208.3,492.9 L2113.7,492.9 L2113.7,170.2 L2113.7,170.2 Z"/><path id="Path" fill="#FFF" d="M2660.4,502 C2588.6,502 2534.2,482.1 2496.7,442.3 C2459.2,402.5 2440.6,346.1 2440.6,272.7 C2440.6,236.2 2446.5,203.9 2457.9,175.2 C2469.3,146.5 2485,122.4 2504.9,102.8 C2525.1,83 2549.4,67.7 2576,58.1 C2603.4,48 2633.4,42.8 2665.7,42.8 C2684.3,42.8 2701.3,44.1 2716.6,47 C2730.2,49.2 2743.6,52.4 2756.7,56.5 C2766.5,59.5 2776.1,63.2 2785.4,67.6 C2792.9,71.5 2798.4,74.4 2802,76.4 L2773.3,156.3 C2758.2,148.5 2742.4,142.4 2726,138 C2708.1,132.8 2687.5,130.5 2664.7,130.5 C2649.5,130.5 2634.4,133.1 2620,138 C2605.4,143.2 2592.2,151.6 2581.2,162.5 C2570.1,173.6 2561,188.3 2554.1,205.9 C2547.3,223.8 2544,245.4 2544,270.8 C2543.9,289.9 2546.1,309 2550.5,327.6 C2555.1,345.2 2562.2,360.2 2572,372.9 C2582.4,386 2595.8,396.4 2611.1,403.2 C2627.1,410.7 2646.7,414.3 2669.5,414.3 C2682.5,414.3 2695.4,413.5 2708.3,411.7 C2718.7,410.3 2728.9,408.3 2739,405.5 C2747,403.5 2754.9,400.9 2762.5,397.7 C2769.3,394.8 2775.5,391.8 2780.8,389.5 L2808.2,469.1 C2794.2,477.6 2774.6,485.1 2749.2,491.9 C2723.3,498.7 2693.7,502 2660.4,502 Z"/><path id="Shape" fill="#FFF" d="M2956.6,150 C2984.7,150 3007.8,153.3 3026.4,159.5 C3045,165.7 3060,174.8 3071.1,186.9 C3082.5,199.1 3090.6,213.9 3094.9,230 C3099.5,247 3101.7,265.9 3101.7,286.4 L3101.7,483.4 C3088,486.3 3069.4,489.9 3045.3,493.8 C3021.2,497.7 2991.8,500 2957.6,500 C2936.1,500 2916.5,498 2898.9,494.1 C2881.3,490.2 2866.3,484 2853.6,475.5 C2841,466.9 2830.9,455.3 2824.2,441.6 C2817.4,427.6 2814.1,410.6 2814.1,390.1 C2814.1,370.5 2818,354.2 2825.8,340.5 C2833.2,327.2 2844,316.1 2857.1,308.2 C2870.1,300 2885.2,294.2 2902.1,290.6 C2919.5,286.9 2937.2,285.1 2954.9,285.1 C2967.3,285.1 2978.1,285.8 2987.5,286.7 C2997,287.7 3004.8,289 3010.7,290.9 L3010.7,282.1 C3010.7,266.1 3005.8,253.1 2996,243.3 C2986.2,233.5 2969.3,228.6 2945.1,228.6 C2929.2,228.6 2913.3,229.8 2897.5,232.2 C2881.8,234.5 2868.1,237.7 2856.7,242 L2844.6,165.7 C2850.1,164.1 2857,162.1 2865.1,160.2 C2873.3,158.2 2882.4,156.6 2892.2,155 C2902,153.4 2912.1,152.4 2922.9,151.1 C2934.4,150.7 2945.5,150 2956.6,150 Z M2964.1,426.9 C2973.6,426.9 2982.4,426.6 2990.8,426.2 C2997.6,426.1 3004.3,425.4 3011,424.2 L3011,352.4 C3007.1,351.4 3001.5,350.8 2993.7,349.8 C2986.8,348.9 2979.8,348.5 2972.8,348.5 C2964.4,348.6 2956,349.1 2947.7,350.1 C2939.9,351.1 2933,353 2927.2,356.3 C2921.5,359 2916.7,363.2 2913.2,368.4 C2909.7,374.1 2907.9,380.6 2908,387.3 C2908,402 2912.9,412.4 2923,418 C2933.1,424.3 2946.8,426.9 2964.1,426.9 Z"/><path id="Path" fill="#FFF" d="M3248.8,425.3 C3266.1,425.3 3278.5,423.7 3285.7,420.1 C3292.9,416.8 3296.5,410 3296.5,400.5 C3296.5,393 3291.9,386.1 3282.5,380.6 C3273,374.7 3259,368.5 3239.8,361.4 C3225.1,355.9 3211.4,350.3 3199.4,344.1 C3187.3,338.2 3176.9,331.1 3168.7,322.9 C3160.1,314.5 3153.5,304.4 3149.1,293.2 C3144.5,281.8 3142.3,268.1 3142.3,251.8 C3142.3,220.5 3154,195.7 3177.2,177.4 C3200.4,159.1 3232.3,150 3273.1,150 C3292.7,150 3312.2,151.9 3331.5,155.5 C3350.1,159.1 3365.1,163 3375.9,167.2 L3359.3,240.9 C3347.5,236.8 3335.6,233.4 3323.4,230.8 C3309.1,227.7 3294.6,226.1 3280,226.2 C3250.3,226.2 3235.6,234.4 3235.6,251 C3235.5,254.5 3236.2,257.9 3237.6,261.1 C3239.3,264.5 3241.9,267.5 3245.1,269.6 C3250.1,273 3255.3,275.9 3260.8,278.4 C3268.9,282.4 3277.3,285.8 3285.9,288.8 C3306.8,296.6 3323.7,304.1 3337.4,311.6 C3351.1,319.1 3361.5,327.3 3369.4,335.7 C3376.9,344 3382.6,353.7 3386,364.4 C3389.3,374.8 3390.9,387.2 3390.9,401.3 C3390.9,434.2 3378.5,459.4 3353.7,476 C3328.9,493 3294,501.4 3248.7,501.4 C3219,501.4 3194.2,498.8 3174.7,493.9 C3155.1,488.7 3141.4,484.4 3133.6,481.2 L3149.6,404.2 C3165.7,410.5 3182.3,415.5 3199.2,419.2 C3215.5,423.3 3232.1,425.3 3248.8,425.3 Z"/><path id="Path" fill="#FFF" d="M3426,493.2 L3426,15.3 L3520.6,0 L3520.6,160.2 C3528.6,157.7 3536.8,155.6 3545.1,154 C3554.6,152.1 3564.4,151.1 3574.1,151.1 C3601.2,151.1 3623.7,154.7 3641.6,162.2 C3659.5,169.7 3673.9,180.1 3684.7,193.5 C3695.5,207.2 3703,223.2 3707.5,241.8 C3712.1,260.4 3714,281.3 3714,304.1 L3714,493 L3619.4,493 L3619.4,315.4 C3619.4,284.7 3615.5,263.2 3607.7,250.5 C3599.9,237.8 3585.2,231.6 3564.3,231.6 C3556.3,231.5 3548.3,232.3 3540.5,233.9 C3533,235.5 3526.5,236.8 3520.6,238.8 L3520.6,492.9 L3426,492.9 L3426,493.2 L3426,493.2 Z"/><circle id="Oval" cx="249.6" cy="255.2" r="249.2" fill="#FFF"/><path id="symbol_1_" fill="#000" d="M327.4,171.8 C314.9,143.4 286.2,137.5 251,143.3 L239.7,99.5 L213,106.4 L224.1,150.1 C217.1,151.9 209.9,153.4 202.8,155.4 L191.6,112 L164.9,118.9 L176.2,162.7 C170.5,164.3 122.5,176.7 122.5,176.7 L129.9,205.2 C129.9,205.2 149.5,199.7 149.3,200.2 C160.1,197.4 165.2,202.8 167.7,207.9 L198.7,327.9 C199.1,331.4 198.5,337.4 191,339.3 C191.4,339.5 171.6,344.3 171.6,344.3 L174.5,377.5 C174.5,377.5 222,365.3 228.3,363.8 L239.8,408.1 L266.4,401.2 L255,356.6 C262.4,354.9 269.4,353.1 276.4,351.3 L287.8,395.7 L314.5,388.8 L303.1,344.6 C344.1,334.6 373.1,308.8 367.1,269.2 C363.3,245.4 337.3,225.8 315.6,223.6 C328.8,211.6 335.6,194.3 327.4,171.8 L327.4,171.8 Z M314.5,276.2 C319.8,315.4 265.4,320.2 247.3,324.9 L231.6,266.3 C249.8,261.5 305.6,241.6 314.5,276.2 Z M281.7,196.4 C287.3,231.2 240.8,235.3 225.7,239.2 L211.5,186 C226.6,182.1 270.3,164.2 281.7,196.4 Z"/></g></g></svg>
